svgs/regular/square-r.svg

<svg xmlns="http://www.w3.org/2000/svg" viewBox="0 0 448 512"><!--! Font Awesome Pro 6.6.0 by @fontawesome - https://fontawesome.com License - https://fontawesome.com/license (Commercial License) Copyright 2024 Fonticons, Inc. --><path d="M64 80c-8.8 0-16 7.2-16 16l0 320c0 8.8 7.2 16 16 16l320 0c8.8 0 16-7.2 16-16l0-320c0-8.8-7.2-16-16-16L64 80zM0 96C0 60.7 28.7 32 64 32l320 0c35.3 0 64 28.7 64 64l0 320c0 35.3-28.7 64-64 64L64 480c-35.3 0-64-28.7-64-64L0 96zm152 32l104 0c44.2 0 80 35.8 80 80c0 36.6-24.6 67.5-58.2 77l45.4 60.6c8 10.6 5.8 25.6-4.8 33.6s-25.6 5.8-33.6-4.8L220 288l-44 0 0 72c0 13.3-10.7 24-24 24s-24-10.7-24-24l0-96 0-112c0-13.3 10.7-24 24-24zm80 112l24 0c17.7 0 32-14.3 32-32s-14.3-32-32-32l-80 0 0 64 56 0z"/></svg>

<svg xmlns="http://www.w3.org/2000/svg" viewBox="0 0 448 512"><!--! Font Awesome Pro 6.4.0 by @fontawesome - https://fontawesome.com License - https://fontawesome.com/license (Commercial License) Copyright 2023 Fonticons, Inc. --><path d="M64 80c-8.8 0-16 7.2-16 16V416c0 8.8 7.2 16 16 16H384c8.8 0 16-7.2 16-16V96c0-8.8-7.2-16-16-16H64zM0 96C0 60.7 28.7 32 64 32H384c35.3 0 64 28.7 64 64V416c0 35.3-28.7 64-64 64H64c-35.3 0-64-28.7-64-64V96zm152 32H256c44.2 0 80 35.8 80 80c0 36.6-24.6 67.5-58.2 77l45.4 60.6c8 10.6 5.8 25.6-4.8 33.6s-25.6 5.8-33.6-4.8L220 288H176v72c0 13.3-10.7 24-24 24s-24-10.7-24-24V264 152c0-13.3 10.7-24 24-24zm80 112h24c17.7 0 32-14.3 32-32s-14.3-32-32-32H176v64h56z"/></svg>
